!!!OTL: 290. Aufmunterung zur Freude. / Volksweise.
!!!COM: Volksweise
!!!ARE: Europa, Mitteleuropa, Deutschland, Pommern; Brandenburg; Sachsen
!!!SCT: B0290A
!!!TXL: @@DE
!!!YEM: Copyright 1995, estate of Helmut Schaffrath.
**kern	**text
*ICvox	*
*Ivox	*
*M4/4	*
*met(c)	*
*clefG2	*
*k[b-]	*
*F:	*
!LO:TX:a:t=Mäßig.	!
{4c	Wer
=1	=1
4.f	woll-
8a	-te
8g	ſich
8f	mit
8g	Gril-
8a	-len
=2	=2
(4f	pla-
8.ccL)	.
16b-J	.
4a	-gen,
8r}	.
{8f	ſo
=3	=3
4.g	lang'
8a	uns
8b-	Lenʒ
8a	und
8b-	Ju-
8cc	-gend
=4	=4
(<4b-	blühn?
4a)	.
4r}	.
{8fL	Wer
8aJ	.
=5	=5
4.cc	wollt'
8a	in
8cc	ſei-
8a	-nen
8cc	Blü-
8ff	-ten-
=6	=6
(8eeqq	.
4dd)	-ta-
4cc	-gen
4r}	.
{4a	die
=7	=7
4.g	Stirn
8a	in
8b-	dü-
8dd	-ſtre
8cc	Fal-
8e	-ten
=8	=8
(4g	ʒiehn?
4f)	.
4r}	.
==	==
!!!AGN: Stimmungs - Lied, Freude
!!!GTL: Lieder der Freude und Geseligkeit
!!!ONB: ESAC (Essen Associative Code) Database: BOEHME
!!!AMT: simple quadruple
!!!AIN: vox
!!!EED: Helmut Schaffrath
!!!EEV: 1.0
!!!RDF**kern: < = below
!!Aus Pommern, Brandenburg, Sachsen und dem Rheinland.
!!!Text: L. H. Ch. Hölty
!!!URL-scan: https://archive.org/details/BoehmeVtLieder1895/page/n243/mode/2up
!!!ENC: Anna Maria Matuszewska
!!!EEV: 2024/03/07
*-	*-
